X: 642
M: C|
L: 1/8
K: G
V: 1
c2ce d/c/B/A/ GB | cABG TA>GE :|
|: A |\
gage d/c/B/A/ GB | c>AB>G TAGE :|
V: 2 clef=bass middle=d
z |\
g2g2 g2g2 | a2a2 a2a2 |\
c'2c'2 b2b2 | a2g2 e2e :|\
|: z |\
g2g2 g2g2 | a2a2 a2a2 |\
g2g2 g2g2 | a2g2 e2e :|

